X:69
T:Harlequin Nabob. THO5.069
M:C|
L:1/8
B:Thompson's Complete Collection of 200 Favourite Dances Vol.5
F:https://www.libraryofdance.org/manuals/1780c-Thompson-Compleat-5.pdf
Z:vmp. Peter Dunk 2024
Q:1/4=140
K:D
(fg)|abaf edfg|abaf dfdA|Bdgf efde|caec Aefg|
abaf edfg|abaf dfdA|Bdgf ebac|dfAd D2:|
|:(cd)|eAce agec|!wedge!d(f/g/a)f dafd|eAce agec|!wedge!d(f/g/a)f dafd|
bgdB Gbag|afdA Fagf|gecG Egfe|fdAF D2:|
W:
W:The 1st Gent turn the 2nd Lady, the 1st Lady turns the 2nd Gent ./.
W:Right hands across, left hands back again ./:
W:1st 2nd and 3rd Couples Promenade round :/.
W:Lead down the middle, up again and cast off :/:

